X: 306
T:Swallowtail
% Nottingham Music Database
S:EF
M:6/8
K:Em
P:A
E/2F/2|"Em"GEE BEE|"Em"GEE BAG|"D"FDD ADD|"D"d^cd AGF|
"Em"GEE BEE|"Em"GEE B2^c|"D"d^cd AGF|"Em"GEE E2:|
P:B
B|"Bm"B^cd "Em"e2f|"Em"e2f edB|"Bm"B^cd "Em"e2f|"Em"edB "D"d3|
"Bm"B^cd "Em"e2f|"Em"e2f edB|"D"d^cd AGF|"Em"GEE E2:|<end>
<start>
